X: 4
T:Bourre de Viplaix
R:Bourre  2 temps
C:Trad.
O:France
A:Centre
S:80 airs  danser du centre France - La Chavanne - 1991
S:04
Z:Transcrit et/ou corrig par Michel BELLON - 2005-05-16
Z:Pour toute observation mailto:galouvielle@free.fr
M:2/4
L:1/8
K:C
c>B cd | e3c | d>d de/2d/2 | c2G2 | c>B cd | e3c | d>d de/2d/2 | c4 ||
B>d dd | c>e e2 | B>d dd | c2G2 | B>d dd | c>e ee | g>f ed | c4 |]
%%footer $D   Galouvielle-MBe 2005 \nBourre  2 temps France
